X:1
T:When the war is all over
M:2/4
L:1/8
R:Air
N:”Andante”
S:O’Neill’s Irish Music (1915)
Z:AK/Fiddler’s Companion
K:Gmin
"Andante"G | G2 G>A | BG G>F | DCDA | G>A G>A | B>A B>c |
dc/=e/ f>d | c>A G>F | F3e | d>c d>e | f>d B>d |
c>A G>F | d3c | B>G A>^F | G>=F DC | D>^F GB/A/ | (G2G) ||

